X:1
T:We've a Story to Tell to the Nations
T:Text: H. Ernest Nichol (1862-1928) Tune: H. Ernest Nichol (1862-1928)
T:10 88 77 Refrain MESSAGE www.hymnary.org/text/weve_a_story_to_tell_to_the_nations
T:We've a Story to Tell to the Nations
T:This hymn is in the public domain.  You may freely use this score for personal and congregational worship.  If you reproduce the score, please credit Hymnary.org as the source. 
T:This hymn is in the public domain.  You may freely use this score for personal and congregational worship.  If you reproduce the score, please credit Hymnary.org as the source. 
T:This hymn is in the public domain.  You may freely use this score for personal and congregational worship.  If you reproduce the score, please credit Hymnary.org as the source. 
Z:This hymn is in the public domain.  You may freely use this score for personal and congregational worship.  If you reproduce the score, please credit Hymnary.org as the source.
%%score ( 1 2 ) ( 3 4 )
L:1/8
M:4/4
K:Eb
V:1 treble nm="Piano" snm="Pno."
V:2 treble 
V:3 bass nm="Piano" snm="Pno."
V:4 bass 
V:1
 E>F | [EG]2 [^CG]>[CG] [DA]2 [DG]>[D^F] | [EG]4 [B,E]2 [EG]>[EA] | [EB]2 [GB]2 | %4
w: 3~We've a|mes- sage to give to the|na- tions, that the|Lord who|
w: 1~We've a|sto- ry to tell to the|na- tions, that shall|turn their|
w: 2~We've a|song to be sung to the|na- tions, that shall|lift their|
 [^Fc]2 [GB]>[F=A] | [GB]6 [EB]2 | [Dc]2 [DA][EG] F2 (GA) | B4 [EG]2 [DF]2 | %8
w: reigns high a-|bove has|sent us his Son to _|save us, and|
w: hearts to the|right, a|sto- ry of truth and _|mer- cy, a|
w: hearts to the|Lord, a|song that shall con- quer *|e- vil and|
 [CE]2 DE [=A,F]2 [CE]2 | (([B,D]2 [CE]2 [DF]2)) [DF]2 | [EG]2 [EG][EG] [E=A]2 F2 | [DB]6 || %12
w: show us that God is|love, _ _ and|show us that God is|love.|
w: sto- ry of peace and|light, _ _ a|sto- ry of peace and|light.|
w: shat- ter the spear and|sword, _ _ and|shat- ter the spear and|sword.|
"^Refrain" B,>B, | [B,E]2 [B,E]>[B,E] [B,F]2 [B,G]2 | [B,G]4 [B,F]2 [B,F]>[B,G] | %15
w: For the|dark- ness shall turn to|daw- ning, and the|
w: |||
w: |||
 [DA]2 [DA]>[DA] [DG]2 [DF]2 | B6 | B2 | [Ge]2 [Be]2 [Fd]2 [^Fc]>[Fc] | [GB]2 [DG]2 E2 [EA]2 | %20
w: daw- ning to noon- day|bright;|and|Christ's great king- dom shall|come on earth, the|
w: |||||
w: |||||
 [EG]2 [EG]>[EG] [CG]2 [DF]2 | E6 |] %22
w: king- dom of love and|light.|
w: ||
w: ||
V:2
 E>E | x8 | x8 | x4 | x4 | x8 | x4 F2 D2 | (E2 D2) x4 | x2 CB, x4 | x8 | x6 E2 | x6 || B,>B, | x8 | %14
 x8 | x8 | (E2 D2 E2) | A2 | x8 | x4 E2 x2 | x8 | E6 |] %22
V:3
 [E,G,]>[E,A,] | [E,B,]2 [=E,B,]>[E,B,] [F,B,]2 [B,,B,]>[B,,=A,] | B,4 [E,G,]2 B,>F, | %3
 [E,G,]2 [E,B,]2 | [E,=A,]2 [E,B,]>[E,C] | [E,B,]6 [G,B,]2 | B,2 [F,B,][E,B,] [D,B,]2 B,2 | %7
 B,4 [E,B,]2 [B,,A,]2 | [C,G,]2 [C,G,][C,G,] [F,,F,]2 [=A,,F,]2 | (F,4 B,2) [B,,B,]2 | %10
 [E,B,]2 [E,B,][D,B,] [C,C]2 [F,=A,]2 | B,6 || [F,A,]>[F,A,] | %13
 [E,G,]2 [B,,G,]>[B,,G,] [E,G,]2 [B,,G,]2 | A,4 [D,A,]2 [B,,A,]>[B,,A,] | %15
 [F,B,]2 [B,,B,]>[B,,B,] B,2 B,2 | B,6 | [F,D]2 | [E,E]2 [G,E]2 [A,E]2 [=A,E]>[A,E] | %19
 [B,E]2 [=B,D]2 C2 [F,C]2 | B,2 B,>B, [B,,A,]2 [B,,A,]2 | [E,G,]6 |] %22
V:4
 x2 | x8 | (E,2 B,,2) x2 E,>E, | x4 | x4 | x8 | A,2 x4 A,2 | (G,2 F,2) x4 | x8 | B,,6 x2 | x8 | %11
 (B,,2 _A,2 G,2) || x2 | x8 | (D,2 B,,2) x4 | x4 B,2 A,2 | (G,2 A,2 G,2) | x2 | x8 | x4 C2 x2 | %20
 B,2 B,>B, x4 | x6 |] %22

